X:7
M:6/8
L:1/8
K:D
| DFA AFA | gfe agf | dBB gBB | ece gfe | 
dfa gfc | bag fed | ege BdB | dgd edB :| 
| dBB GBB | GBd edB | ege BdB | AGE GED | 

